brandFactory_export/3.Masa/Cancelar_3Masa.svg

<?xml version="1.0" encoding="UTF-8"?>
<svg width="24px" height="24px" viewBox="0 0 24 24" version="1.1" xmlns="http://www.w3.org/2000/svg" xmlns:xlink="http://www.w3.org/1999/xlink">
    <title>3.Masa/Cancelar_3Masa</title>
    <g id="Symbols" stroke="none" stroke-width="1" fill="none" fill-rule="evenodd">
        <g id="3.Masa/Cancelar_3Masa" fill="#5CB615" fill-rule="nonzero">
            <path d="M17.5697479,16.5310924 C17.8588235,16.8201681 17.8588235,17.287395 17.5697479,17.5764706 C17.4252101,17.7210084 17.2369748,17.7915966 17.0487395,17.7915966 C16.8571429,17.7915966 16.6722689,17.7210084 16.5243697,17.5764706 L11.805042,12.8571429 L7.09915966,17.5630252 C6.95462185,17.707563 6.76638655,17.7781513 6.57815126,17.7781513 C6.38991597,17.7781513 6.20168067,17.7042017 6.05714286,17.5630252 C5.76806723,17.2739496 5.76806723,16.8067227 6.05714286,16.5176471 L10.7630252,11.8117647 L6.05714286,7.10588235 C5.76806723,6.81680672 5.76806723,6.34957983 6.05714286,6.06386555 C6.34621849,5.77478992 6.81344538,5.77478992 7.09915966,6.06386555 L11.805042,10.7697479 L16.5243697,6.04705882 C16.8134454,5.75798319 17.2806723,5.75798319 17.5697479,6.04705882 C17.8588235,6.33613445 17.8588235,6.80336134 17.5697479,7.09243697 L12.8470588,11.8117647 L17.5697479,16.5310924 L17.5697479,16.5310924 Z M11.8084034,0 C4.34621849,0 0,3.76806723 0,11.8151261 C0,19.8621849 4.34621849,23.6235294 11.8084034,23.6235294 C19.2705882,23.6235294 23.6235294,19.8621849 23.6235294,11.8151261 C23.6235294,3.76806723 19.2705882,0 11.8084034,0 Z" id="Cancelar_3Masa"></path>
        </g>
    </g>
</svg>

<svg width="24" height="24" viewBox="0 0 24 24" xmlns="http://www.w3.org/2000/svg"><path d="M17.57 16.531a.738.738 0 11-1.046 1.045l-4.719-4.719-4.706 4.706a.733.733 0 01-.52.215.738.738 0 01-.521-1.26l4.705-4.706-4.706-4.706a.734.734 0 010-1.042.734.734 0 011.042 0l4.706 4.706 4.72-4.723a.738.738 0 111.045 1.045l-4.723 4.72 4.723 4.72zM11.808 0C4.346 0 0 3.768 0 11.815s4.346 11.809 11.808 11.809c7.463 0 11.816-3.762 11.816-11.809C23.624 3.768 19.27 0 11.808 0z" fill="#5CB615" fill-rule="nonzero"/></svg>
